X:120
T:Will You Come to the Bower. JGi.120
M:2/4
L:1/8
Q:1/4=100
S:Joshua Gibbons MS,1823,Tealby,Lincs.
R:Country Dance
O:Tealby,Lincolnshire
Z:VMP/R.Greig, 2009
K:G
(Bd)|:d2dd|d2dd|dgfe|ed zd|dccc|cBBB|dcAF|G2z2:|
|:(GB).B.B|(GB).B.B|d2cc|B2z2|(GB).B.B|(GB).B.B|dcBF|G2z2:|

